src/components/CallToAction/images/github.svg

<svg xmlns="http://www.w3.org/2000/svg" width="20" height="20" fill="none" viewBox="0 0 20 20"><g clip-path="url(#clip0)"><path fill="#fff" d="M10.0001 0C4.47791 0 0 4.47709 0 10.0001C0 14.4184 2.86533 18.1668 6.83867 19.4891C7.33844 19.5817 7.52192 19.2722 7.52192 19.0081C7.52192 18.7696 7.51265 17.9819 7.50834 17.1463C4.72631 17.7512 4.13927 15.9664 4.13927 15.9664C3.68437 14.8105 3.02894 14.5032 3.02894 14.5032C2.12163 13.8825 3.09733 13.8953 3.09733 13.8953C4.10151 13.9658 4.63026 14.9258 4.63026 14.9258C5.52217 16.4546 6.96965 16.0126 7.5403 15.7571C7.63006 15.1107 7.88922 14.6696 8.1752 14.4199C5.95405 14.167 3.61913 13.3095 3.61913 9.47779C3.61913 8.38601 4.00977 7.49394 4.64947 6.79362C4.54564 6.54175 4.20335 5.52465 4.74635 4.14722C4.74635 4.14722 5.58609 3.87845 7.49708 5.17226C8.29476 4.95069 9.15024 4.83958 10.0001 4.83577C10.8499 4.83958 11.7061 4.95069 12.5052 5.17226C14.4139 3.87845 15.2525 4.14722 15.2525 4.14722C15.7968 5.52465 15.4544 6.54175 15.3505 6.79362C15.9917 7.49394 16.3797 8.38601 16.3797 9.47779C16.3797 13.3187 14.0403 14.1644 11.8135 14.4119C12.1722 14.7223 12.4918 15.3308 12.4918 16.2638C12.4918 17.6018 12.4802 18.6787 12.4802 19.0081C12.4802 19.2742 12.6602 19.586 13.1671 19.4878C17.1383 18.164 20 14.4169 20 10.0001C20 4.47709 15.5227 0 10.0001 0ZM3.74536 14.2453C3.72333 14.295 3.64517 14.3099 3.57396 14.2758C3.50143 14.2432 3.46069 14.1754 3.48421 14.1256C3.50574 14.0744 3.58406 14.0602 3.65643 14.0945C3.72913 14.1271 3.77053 14.1955 3.74536 14.2453ZM4.23725 14.6842C4.18956 14.7285 4.09633 14.7079 4.03307 14.638C3.96766 14.5683 3.9554 14.4751 4.00376 14.4302C4.05294 14.386 4.14336 14.4067 4.20893 14.4764C4.27434 14.547 4.28709 14.6395 4.23725 14.6842ZM4.57471 15.2458C4.51344 15.2884 4.41325 15.2485 4.35132 15.1595C4.29004 15.0706 4.29004 14.964 4.35264 14.9212C4.41474 14.8785 4.51344 14.9169 4.5762 15.0052C4.6373 15.0956 4.6373 15.2023 4.57471 15.2458ZM5.14542 15.8962C5.09061 15.9566 4.97386 15.9404 4.88841 15.8579C4.80098 15.7773 4.77663 15.6629 4.83161 15.6024C4.88709 15.5418 5.0045 15.5589 5.09061 15.6407C5.17738 15.7211 5.20387 15.8364 5.14542 15.8962ZM5.88301 16.1157C5.85883 16.1941 5.74639 16.2297 5.63312 16.1964C5.52002 16.1621 5.446 16.0704 5.46885 15.9912C5.49237 15.9124 5.6053 15.8753 5.7194 15.9109C5.83234 15.945 5.90652 16.0361 5.88301 16.1157ZM6.72242 16.2089C6.72523 16.2913 6.62919 16.3597 6.51029 16.3612C6.39073 16.3639 6.29402 16.2971 6.29269 16.216C6.29269 16.1327 6.38659 16.065 6.50615 16.063C6.62505 16.0607 6.72242 16.1269 6.72242 16.2089ZM7.54704 16.1773C7.56128 16.2577 7.47865 16.3404 7.36058 16.3624C7.2445 16.3836 7.13702 16.3339 7.12229 16.2541C7.10788 16.1716 7.192 16.089 7.30792 16.0676C7.42616 16.0471 7.53197 16.0955 7.54704 16.1773Z"/></g><defs><clipPath id="clip0"><rect width="20" height="19.531" fill="#fff"/></clipPath></defs></svg>

<svg fill="none" viewBox="0 0 20 20"><g clip-path="url(#clip0)"><path fill="#fff" d="M10 0C4.478 0 0 4.477 0 10c0 4.418 2.865 8.167 6.839 9.49.5.092.683-.218.683-.482 0-.238-.01-1.026-.014-1.862-2.782.605-3.369-1.18-3.369-1.18-.455-1.155-1.11-1.463-1.11-1.463-.907-.62.068-.608.068-.608 1.005.07 1.533 1.03 1.533 1.03.892 1.53 2.34 1.088 2.91.832.09-.646.35-1.087.635-1.337-2.221-.253-4.556-1.11-4.556-4.942a3.87 3.87 0 011.03-2.684c-.103-.252-.446-1.27.097-2.647 0 0 .84-.269 2.751 1.025A9.585 9.585 0 0110 4.836a9.61 9.61 0 012.505.336c1.909-1.294 2.747-1.025 2.747-1.025.545 1.378.202 2.395.098 2.647.642.7 1.03 1.592 1.03 2.684 0 3.84-2.34 4.686-4.566 4.934.358.31.678.919.678 1.852 0 1.338-.012 2.415-.012 2.744 0 .266.18.578.687.48A10.001 10.001 0 0020 10c0-5.523-4.477-10-10-10zM3.745 14.245c-.022.05-.1.065-.171.03-.073-.032-.113-.1-.09-.15.022-.05.1-.065.172-.03.073.032.115.1.09.15zm.492.44c-.047.043-.14.023-.204-.047-.065-.07-.078-.163-.03-.208.05-.044.14-.023.206.046.065.071.078.163.028.208zm.338.56c-.062.043-.162.004-.224-.085-.061-.09-.061-.196.002-.239.062-.042.16-.004.223.084.061.09.061.197-.001.24zm.57.651c-.054.06-.171.044-.257-.038-.087-.08-.111-.195-.056-.256.055-.06.173-.043.259.039.086.08.113.195.054.255zm.738.22c-.024.078-.137.114-.25.08-.113-.034-.187-.126-.164-.205.023-.079.136-.116.25-.08.113.034.188.125.164.205zm.84.093c.002.082-.094.15-.213.152-.12.003-.216-.064-.217-.145 0-.083.094-.151.213-.153.119-.002.216.064.216.146zm.824-.032c.014.08-.068.163-.186.185-.116.022-.224-.028-.239-.108-.014-.082.07-.165.186-.186.118-.02.224.027.239.11z"/></g><defs><clipPath id="clip0"><path fill="#fff" d="M0 0h20v19.531H0z"/></clipPath></defs></svg>
